X:1
T:The Oxen Ploughing
F:http://www.folkinfo.org/songs
B:Songs of the West by S. Baring-Gould.
S:Adam Landry.
M:4/4
L:1/8
K:F
C C|F3/2 F1/2 F F F d c3/2 B1/2|A B A3/2 G1/2 F2 z F|
w:Prit hee lend your jo-cund voi ces, For to list- en we're a-greed; Come
A3/2 A1/2 A A A c B3/2 A1/2|A3/2 G1/2 G A G2 A B|
w:sing of songs the choic est, Of the life the plough-boys lead. There are
c A G F E D B3/2  B1/2|B A G F (GAG) c1/2 c1/2|
w:none that live so merry As the plough- boy do- es in Spr ing *When he
c3/2 A1/2 B c d c B A|A G G3/2 F1/2 F2|
w:hears the sweet birds whist-le And the night-in-gales to sing.
A c|c3/2 B1/2 G2 c3/2 A1/2 F2|c2 B3/2 G1/2 A3/2 A1/2 A2|
w:With my Hump-a long! Jump-a-long! Here drives my lad a-long!
F3/2 F1/2 F G A F z2|G3/2 G1/2 G A B G z2|
w:Pret-ty, Spark- le, Ber- ry Good-luck, Speed- well, Cher- ry!
d2 c3/2 B1/2 A2 G3/2 F1/2|G2 F3/2 E1/2 (FA) (cf)|
w:We are the lads that can fol-low the plou- gh, O
d2 c3/2 B1/2 A2 G3/2 F1/2|G2 F3/2 E1/2 F4||
w:we are the lads that can fol-low the plough.